X: 13
T: Mother's Delight
Z: jeff_lindqvist
S: https://thesession.org/tunes/257#setting52050
R: reel
M: 4/4
L: 1/8
K: Ddor
DE|:F2 FE F2 DE|FDFA GECE|Dddc defe|decd ABcA|
~d3c ~A3B|cBcG ECCE|Dddc AGAB|cAGE FDDE:|
|:FAdA FDDD|E/F/G cG EC~C2|FAdA FADF|EDCE ~D3E:|

